symbols/web/8k/materialsymbolsoutlined/8k_wght600gradN25_48px.svg

<svg xmlns="http://www.w3.org/2000/svg" height="48" width="48"><path d="M26 29.9h2.4v-4.45l4.2 4.45h3.2L30.25 24l5.55-5.95h-3.2l-4.2 4.45v-4.45H26Zm-11.25 0h5.1q.75 0 1.175-.425.425-.425.425-1.175v-8.6q0-.7-.425-1.175-.425-.475-1.175-.475h-5.1q-.75 0-1.2.475-.45.475-.45 1.175v8.6q0 .75.45 1.175.45.425 1.2.425Zm.8-6.7v-3.55h3.5v3.55Zm0 5.1v-3.5h3.5v3.5Zm-6.2 14.2q-1.55 0-2.7-1.15-1.15-1.15-1.15-2.7V9.35q0-1.6 1.15-2.725T9.35 5.5h29.3q1.6 0 2.725 1.125T42.5 9.35v29.3q0 1.55-1.125 2.7-1.125 1.15-2.725 1.15Zm0-3.85h29.3V9.35H9.35v29.3Zm0-29.3v29.3-29.3Z"/></svg>

<svg xmlns="http://www.w3.org/2000/svg" height="48" width="48"><path d="M26 29.9H28.4V25.45L32.6 29.9H35.8L30.25 24L35.8 18.05H32.6L28.4 22.5V18.05H26ZM14.75 29.9H19.85Q20.6 29.9 21.025 29.475Q21.45 29.05 21.45 28.3V19.7Q21.45 19 21.025 18.525Q20.6 18.05 19.85 18.05H14.75Q14 18.05 13.55 18.525Q13.1 19 13.1 19.7V28.3Q13.1 29.05 13.55 29.475Q14 29.9 14.75 29.9ZM15.55 23.2V19.65H19.05V23.2ZM15.55 28.3V24.8H19.05V28.3ZM9.35 42.5Q7.8 42.5 6.65 41.35Q5.5 40.2 5.5 38.65V9.35Q5.5 7.75 6.65 6.625Q7.8 5.5 9.35 5.5H38.65Q40.25 5.5 41.375 6.625Q42.5 7.75 42.5 9.35V38.65Q42.5 40.2 41.375 41.35Q40.25 42.5 38.65 42.5ZM9.35 38.65H38.65Q38.65 38.65 38.65 38.65Q38.65 38.65 38.65 38.65V9.35Q38.65 9.35 38.65 9.35Q38.65 9.35 38.65 9.35H9.35Q9.35 9.35 9.35 9.35Q9.35 9.35 9.35 9.35V38.65Q9.35 38.65 9.35 38.65Q9.35 38.65 9.35 38.65ZM9.35 9.35Q9.35 9.35 9.35 9.35Q9.35 9.35 9.35 9.35V38.65Q9.35 38.65 9.35 38.65Q9.35 38.65 9.35 38.65Q9.35 38.65 9.35 38.65Q9.35 38.65 9.35 38.65V9.35Q9.35 9.35 9.35 9.35Q9.35 9.35 9.35 9.35Z"/></svg>
